;FLAVOR:Marlin
;TIME:11335
;Filament used: 15.8047m
;Layer height: 0.2
;MINX:4.333
;MINY:0.643
;MINZ:0.2
;MAXX:220
;MAXY:220
;MAXZ:20
;TARGET_MACHINE.NAME:Creality Ender-3 V3 SE
;Generated with Cura_SteamEngine 5.7.1
M82 ;absolute extrusion mode
M220 S100 ;Reset Feedrate
M221 S100 ;Reset Flowrate

G28 ;Home

M420 S1; Use saved mesh leveling data

G92 E0 ;Reset Extruder
G1 Z2.0 F3000 ;Move Z Axis up
G1 X-3 Y20 Z0.28 F5000.0 ;Move to start position
M190 S60 ; Set bed temperature and wait
M109 S200 ; Set hotend temperature and wait
G1 X-3 Y100.0 Z0.28 F1500.0 E15 ;Draw the first line
G1 X-2 Y100.0 Z0.28 F5000.0 ;Move to side a little
G1 X-2 Y20 Z0.28 F1500.0 E30 ;Draw the second line
G92 E0 ;Reset Extruder
G1 E-1.0000 F1800 ;Retract a bit
G1 Z2.0 F3000 ;Move Z Axis up
G1 E0.0000 F1800 

G92 E0
G92 E0
G1 F2400 E-0.8
;LAYER_COUNT:100
;LAYER:0
M107
G0 F9000 X81.18 Y220 Z0.2
;TYPE:SKIRT
G1 F2400 E0
G1 F1800 X80.896 Y219.842 E0.01081
G1 X80.394 Y219.539 E0.03031
G1 X76.732 Y217.21 E0.17466
G1 X76.114 Y216.805 E0.19923
G1 X75.6 Y216.445 E0.2201
G1 X75.136 Y216.095 E0.23943
G1 X71.856 Y213.502 E0.3785
G1 X71.16 Y212.934 E0.40838
G1 X70.711 Y212.546 E0.42812
G1 X70.213 Y212.084 E0.45071
G1 X67.232 Y209.179 E0.58915
G1 X66.649 Y208.594 E0.61662
G1 X66.245 Y208.165 E0.63622
G1 X65.819 Y207.678 E0.65774
G1 X63.047 Y204.358 E0.80159
G1 X62.391 Y203.539 E0.83649
G1 X61.424 Y202.268 E0.88961
G1 X59.838 Y200.255 E0.97485
G1 X58.231 Y198.332 E1.0582
G1 X56.543 Y196.423 E1.14296
G1 X54.846 Y194.609 E1.22558
G1 X53.053 Y192.8 E1.31029
G1 X51.255 Y191.084 E1.39296
G1 X49.346 Y189.363 E1.47844
G1 X47.48 Y187.776 E1.55992
G1 X45.468 Y186.159 E1.64577
G1 X43.472 Y184.647 E1.72905
G1 X41.439 Y183.192 E1.81221
G1 X39.331 Y181.775 E1.89669
G1 X37.21 Y180.434 E1.98015
G1 X35.058 Y179.158 E2.06336
G1 X32.849 Y177.93 E2.14742
G1 X30.63 Y176.777 E2.23059
G1 X28.377 Y175.687 E2.31384
G1 X26.046 Y174.639 E2.39884
G1 X23.745 Y173.683 E2.48172
G1 X21.343 Y172.763 E2.56727
G1 X19.048 Y171.956 E2.64818
G1 X16.594 Y171.173 E2.73385
G1 X14.173 Y170.473 E2.81768
G1 X13.12 Y170.2 E2.85386
G1 X12.379 Y169.994 E2.87944
G1 X11.454 Y169.691 E2.91181
G1 X10.56 Y169.307 E2.94417
G1 X9.733 Y168.864 E2.97538
G1 X8.889 Y168.309 E3.00897
G1 X8.153 Y167.727 E3.04018
G1 X7.421 Y167.033 E3.07373
G1 X6.798 Y166.329 E3.105
G1 X6.201 Y165.518 E3.13849
G1 X5.713 Y164.717 E3.16969
G1 X5.265 Y163.809 E3.20336
G1 X4.916 Y162.903 E3.23566
G1 X4.655 Y162.001 E3.26689
G1 X4.466 Y161.038 E3.29953
G1 X4.348 Y159.737 E3.34298
G1 X4.333 Y159.08 E3.36484
G1 X4.334 Y122.099 E4.59483
G1 X4.345 Y121.412 E4.61768
G1 X4.399 Y120.481 E4.6487
G1 X4.483 Y119.84 E4.6702
G1 X4.674 Y118.673 E4.70953
G1 X6.081 Y110.93 E4.97128
G1 X6.201 Y110.321 E4.99193
G1 X6.415 Y109.444 E5.02195
G1 X6.614 Y108.826 E5.04355
G1 X6.997 Y107.764 E5.08109
G1 X7.457 Y106.602 E5.12266
G1 X9.863 Y100.797 E5.33166
G1 X10.15 Y100.129 E5.35584
G1 X10.616 Y99.121 E5.39278
G1 X13.386 Y93.371 E5.60506
G1 X13.824 Y92.507 E5.63728
G1 X14.306 Y91.61 E5.67115
G1 X17.236 Y86.353 E5.87132
G1 X17.747 Y85.477 E5.90505
G1 X18.254 Y84.655 E5.93717
G1 X21.458 Y79.651 E6.1348
G1 X22.026 Y78.799 E6.16886
G1 X22.711 Y77.832 E6.20827
G1 X26.352 Y72.873 E6.41289
G1 X26.646 Y72.493 E6.42887
G1 X27.469 Y71.473 E6.47246
G1 X31.039 Y67.203 E6.65758
G1 X31.651 Y66.502 E6.68853
G1 X32.565 Y65.509 E6.73342
G1 X36.663 Y61.216 E6.93082
G1 X37.014 Y60.865 E6.94733
G1 X38.022 Y59.907 E6.99358
G1 X42.004 Y56.239 E7.17365
G1 X42.75 Y55.581 E7.20673
G1 X43.775 Y54.724 E7.25117
G1 X49.961 Y49.741 E7.51537
G1 X51.868 Y48.118 E7.59866
G1 X53.725 Y46.443 E7.68183
G1 X55.56 Y44.693 E7.76617
G1 X57.307 Y42.929 E7.84874
G1 X59.064 Y41.051 E7.93428
G1 X60.71 Y39.188 E8.01697
G1 X62.312 Y37.271 E8.10006
G1 X63.895 Y35.262 E8.18513
G1 X65.4 Y33.236 E8.26907
G1 X66.826 Y31.2 E8.35175
G1 X68.231 Y29.066 E8.43673
G1 X69.545 Y26.944 E8.51974
G1 X70.815 Y24.753 E8.60397
G1 X72.007 Y22.559 E8.68702
G1 X73.146 Y20.314 E8.77075
G1 X74.219 Y18.044 E8.85426
G1 X75.228 Y15.735 E8.93807
G1 X76.177 Y13.394 E9.02208
G1 X77.055 Y11.034 E9.10583
G1 X78.064 Y8.072 E9.20991
G1 X78.393 Y7.231 E9.23994
G1 X78.859 Y6.295 E9.27472
G1 X79.351 Y5.496 E9.30593
G1 X79.954 Y4.685 E9.33954
G1 X80.603 Y3.961 E9.37188
G1 X81.314 Y3.296 E9.40426
G1 X82.053 Y2.716 E9.43551
G1 X82.898 Y2.167 E9.46902
G1 X83.759 Y1.712 E9.50141
G1 X84.658 Y1.333 E9.53386
G1 X85.585 Y1.038 E9.56622
G1 X86.535 Y0.825 E9.5986
G1 X87.49 Y0.697 E9.63065
G1 X88.13 Y0.658 E9.65197
G1 X88.769 Y0.643 E9.67323
G1 X125.624 Y0.643 E10.89903
G1 X126.451 Y0.655 E10.92654
G1 X127.383 Y0.709 E10.95759
G1 X128.023 Y0.793 E10.97906
G1 X129.231 Y0.99 E11.01977
G1 X136.71 Y2.346 E11.27258
G1 X137.522 Y2.505 E11.3001
G1 X138.428 Y2.726 E11.33112
G1 X139.053 Y2.928 E11.35296
G1 X140.121 Y3.313 E11.39072
G1 X141.253 Y3.761 E11.43121
G1 X146.943 Y6.117 E11.63605
G1 X147.983 Y6.568 E11.67375
G1 X148.672 Y6.89 E11.69904
G1 X154.499 Y9.698 E11.91418
G1 X155.365 Y10.136 E11.94646
G1 X156.106 Y10.534 E11.97443
G1 X161.647 Y13.623 E12.18543
G1 X162.375 Y14.049 E12.21349
G1 X163.241 Y14.583 E12.24733
G1 X168.216 Y17.768 E12.4438
G1 X168.804 Y18.156 E12.46723
G1 X170.043 Y19.027 E12.5176
G1 X174.709 Y22.447 E12.71002
G1 X175.386 Y22.966 E12.73839
G1 X176.395 Y23.778 E12.78147
G1 X181.016 Y27.653 E12.98205
G1 X181.381 Y27.974 E12.99822
G1 X182.354 Y28.87 E13.04221
G1 X186.423 Y32.749 E13.22919
G1 X187.007 Y33.33 E13.25659
G1 X187.946 Y34.317 E13.3019
G1 X191.945 Y38.668 E13.49845
G1 X192.279 Y39.05 E13.51533
G1 X193.153 Y40.096 E13.56066
G1 X196.576 Y44.348 E13.74222
G1 X197.195 Y45.146 E13.77581
G1 X198.009 Y46.263 E13.82178
G1 X201.181 Y50.78 E14.00536
G1 X201.72 Y51.581 E14.03747
G1 X202.46 Y52.749 E14.08346
G1 X205.399 Y57.578 E14.27148
G1 X205.865 Y58.382 E14.30239
G1 X206.476 Y59.503 E14.34485
G1 X209.218 Y64.74 E14.54146
G1 X209.63 Y65.566 E14.57216
G1 X210.163 Y66.713 E14.61423
G1 X212.636 Y72.276 E14.81672
G1 X213.002 Y73.145 E14.84808
G1 X213.436 Y74.259 E14.88784
G1 X215.627 Y80.154 E15.09702
G1 X215.97 Y81.13 E15.13142
G1 X216.309 Y82.186 E15.16831
G1 X218.245 Y88.56 E15.38988
G1 X218.51 Y89.501 E15.42239
G1 X218.763 Y90.482 E15.45609
G1 X220 Y95.627 E15.63209
G1 F2400 E14.83209
G0 F9000 X220 Y97.339
G1 F2400 E15.63209
G1 F1800 X218.374 Y90.576 E15.86343
G1 X218.123 Y89.601 E15.89692
G1 X217.86 Y88.669 E15.92913
G1 X215.926 Y82.302 E16.15045
G1 X215.589 Y81.252 E16.18713
G1 X215.25 Y80.287 E16.22115
G1 X213.061 Y74.398 E16.43011
G1 X212.629 Y73.29 E16.46966
G1 X212.267 Y72.431 E16.50067
G1 X209.797 Y66.875 E16.7029
G1 X209.267 Y65.735 E16.74471
G1 X208.86 Y64.919 E16.77504
G1 X206.122 Y59.689 E16.97139
G1 X205.514 Y58.573 E17.01366
G1 X205.053 Y57.779 E17.0442
G1 X202.118 Y52.957 E17.23195
G1 X201.382 Y51.795 E17.2777
G1 X200.849 Y51.003 E17.30945
G1 X197.682 Y46.493 E17.49274
G1 X196.872 Y45.382 E17.53847
G1 X196.26 Y44.593 E17.57168
G1 X192.841 Y40.347 E17.753
G1 X191.972 Y39.306 E17.7981
G1 X191.644 Y38.931 E17.81467
G1 X187.652 Y34.588 E18.01087
G1 X186.717 Y33.606 E18.05597
G1 X186.141 Y33.033 E18.08299
G1 X182.078 Y29.16 E18.26969
G1 X181.11 Y28.268 E18.31347
G1 X180.752 Y27.953 E18.32933
G1 X176.138 Y24.085 E18.52958
G1 X175.135 Y23.277 E18.57242
G1 X174.466 Y22.764 E18.60046
G1 X169.807 Y19.35 E18.79257
G1 X168.574 Y18.483 E18.8427
G1 X167.996 Y18.102 E18.86573
G1 X163.025 Y14.92 E19.06204
G1 X162.165 Y14.389 E19.09565
G1 X161.445 Y13.968 E19.12339
G1 X155.911 Y10.883 E19.33412
G1 X155.176 Y10.489 E19.36186
G1 X154.318 Y10.055 E19.39384
G1 X148.498 Y7.25 E19.60872
G1 X147.814 Y6.931 E19.63383
G1 X146.784 Y6.484 E19.67117
G1 X141.1 Y4.131 E19.87578
G1 X139.974 Y3.685 E19.91606
G1 X138.917 Y3.304 E19.95343
G1 X138.333 Y3.115 E19.97385
G1 X137.427 Y2.894 E20.00487
G1 X136.633 Y2.738 E20.03178
G1 X129.16 Y1.384 E20.28438
G1 X127.959 Y1.188 E20.32485
G1 X127.36 Y1.108 E20.34495
G1 X126.428 Y1.054 E20.376
G1 X125.619 Y1.043 E20.40291
G1 X88.778 Y1.043 E21.62825
G1 X88.139 Y1.058 E21.64951
G1 X87.514 Y1.096 E21.67034
G1 X86.589 Y1.221 E21.70138
G1 X85.673 Y1.428 E21.73261
G1 X84.78 Y1.714 E21.7638
G1 X83.915 Y2.08 E21.79504
G1 X83.086 Y2.52 E21.82626
G1 X82.3 Y3.031 E21.85744
G1 X81.561 Y3.611 E21.88868
G1 X80.877 Y4.253 E21.91989
G1 X80.252 Y4.952 E21.95107
G1 X79.692 Y5.706 E21.98231
G1 X79.2 Y6.505 E22.01352
G1 X78.766 Y7.377 E22.04592
G1 X78.437 Y8.218 E22.07595
G1 X77.434 Y11.163 E22.17943
G1 X76.548 Y13.544 E22.26393
G1 X75.599 Y15.885 E22.34794
G1 X74.58 Y18.215 E22.43253
G1 X73.503 Y20.495 E22.51639
G1 X72.364 Y22.74 E22.60012
G1 X71.161 Y24.954 E22.68393
G1 X69.885 Y27.155 E22.76855
G1 X68.565 Y29.286 E22.85192
G1 X67.154 Y31.429 E22.93726
G1 X65.721 Y33.475 E23.02034
G1 X64.209 Y35.51 E23.10466
G1 X62.626 Y37.519 E23.18973
G1 X61.01 Y39.453 E23.27356
G1 X59.364 Y41.316 E23.35624
G1 X57.599 Y43.202 E23.44215
G1 X55.836 Y44.982 E23.52548
G1 X53.993 Y46.74 E23.6102
G1 X52.127 Y48.423 E23.69377
G1 X50.212 Y50.053 E23.77742
G1 X44.026 Y55.036 E24.04161
G1 X43.006 Y55.888 E24.08582
G1 X42.269 Y56.539 E24.11852
G1 X38.293 Y60.201 E24.29831
G1 X37.29 Y61.155 E24.34435
G1 X36.946 Y61.499 E24.36053
G1 X32.854 Y65.785 E24.55762
G1 X31.945 Y66.773 E24.60227
G1 X31.341 Y67.466 E24.63285
G1 X27.776 Y71.73 E24.81771
G1 X26.957 Y72.744 E24.86106
G1 X26.669 Y73.117 E24.87673
G1 X23.033 Y78.069 E25.08107
G1 X22.353 Y79.03 E25.12022
G1 X21.795 Y79.867 E25.15368
G1 X18.591 Y84.871 E25.35131
G1 X18.087 Y85.687 E25.38321
G1 X17.582 Y86.554 E25.41658
G1 X14.655 Y91.805 E25.61653
G1 X14.176 Y92.696 E25.65017
G1 X13.743 Y93.552 E25.68208
G1 X10.976 Y99.295 E25.89411
G1 X10.513 Y100.297 E25.93082
G1 X10.23 Y100.955 E25.95464
G1 X7.827 Y106.755 E26.16345
G1 X7.369 Y107.911 E26.20481
G1 X6.99 Y108.962 E26.24197
G1 X6.804 Y109.539 E26.26213
G1 X6.59 Y110.416 E26.29216
G1 X6.473 Y111.008 E26.31223
G1 X5.068 Y118.744 E26.57374
G1 X4.878 Y119.905 E26.61287
G1 X4.798 Y120.504 E26.63297
G1 X4.744 Y121.435 E26.66398
G1 X4.734 Y122.105 E26.68627
G1 X4.733 Y159.08 E27.91606
G1 X4.748 Y159.728 E27.93762
G1 X4.859 Y160.961 E27.9788
G1 X5.048 Y161.924 E28.01144
G1 X5.3 Y162.791 E28.04147
G1 X5.638 Y163.665 E28.07264
G1 X6.071 Y164.539 E28.10508
G1 X6.542 Y165.309 E28.1351
G1 X7.098 Y166.064 E28.16628
G1 X7.721 Y166.768 E28.19755
G1 X8.401 Y167.413 E28.22872
G1 X9.137 Y167.995 E28.25993
G1 X9.922 Y168.511 E28.29118
G1 X10.749 Y168.954 E28.32238
G1 X11.611 Y169.323 E28.35357
G1 X12.503 Y169.614 E28.38477
G1 X13.227 Y169.815 E28.40977
G1 X14.279 Y170.088 E28.44591
G1 X16.716 Y170.792 E28.53028
G1 X19.17 Y171.575 E28.61596
G1 X21.486 Y172.389 E28.69761
G1 X23.888 Y173.309 E28.78316
G1 X26.21 Y174.274 E28.86679
G1 X28.541 Y175.322 E28.9518
G1 X30.814 Y176.422 E29.03578
G1 X33.043 Y177.58 E29.11933
G1 X35.252 Y178.808 E29.20339
G1 X37.424 Y180.096 E29.28738
G1 X39.554 Y181.443 E29.3712
G1 X41.672 Y182.867 E29.45609
G1 X43.714 Y184.328 E29.5396
G1 X45.719 Y185.847 E29.62326
G1 X47.731 Y187.464 E29.70911
G1 X49.614 Y189.066 E29.79134
G1 X51.523 Y190.787 E29.87683
G1 X53.337 Y192.518 E29.96022
G1 X55.13 Y194.327 E30.04494
G1 X56.843 Y196.158 E30.12833
G1 X58.531 Y198.067 E30.21309
G1 X60.152 Y200.007 E30.29717
G1 X61.738 Y202.02 E30.38241
G1 X62.709 Y203.297 E30.43577
G1 X63.359 Y204.108 E30.47034
G1 X66.126 Y207.422 E30.61393
G1 X66.546 Y207.902 E30.63514
G1 X66.94 Y208.32 E30.65425
G1 X67.515 Y208.897 E30.68134
G1 X70.492 Y211.797 E30.81957
G1 X70.983 Y212.253 E30.84186
G1 X71.421 Y212.631 E30.8611
G1 X72.109 Y213.192 E30.89063
G1 X75.384 Y215.781 E31.02948
G1 X75.841 Y216.126 E31.04852
G1 X76.343 Y216.477 E31.0689
G1 X76.951 Y216.876 E31.09309
G1 X80.609 Y219.201 E31.23725
G1 X81.103 Y219.499 E31.25643
G1 X81.626 Y219.79 E31.27634
G1 X82.037 Y220 E31.29169
G0 F9000 X82.916 Y220
G1 F1800 X81.82 Y219.44 E31.33263
G1 X81.31 Y219.157 E31.35203
G1 X80.824 Y218.863 E31.37092
G1 X77.17 Y216.541 E31.51491
G1 X76.572 Y216.149 E31.5387
G1 X76.082 Y215.807 E31.55857
G1 X75.632 Y215.467 E31.57733
G1 X72.362 Y212.882 E31.71597
G1 X71.682 Y212.328 E31.74514
G1 X71.255 Y211.96 E31.76389
G1 X70.771 Y211.511 E31.78585
G1 X67.798 Y208.614 E31.92391
G1 X67.231 Y208.046 E31.95061
G1 X66.847 Y207.638 E31.96924
G1 X66.433 Y207.166 E31.99012
G1 X63.671 Y203.858 E32.13346
G1 X63.027 Y203.055 E32.16769
G1 X62.052 Y201.772 E32.22129
G1 X60.466 Y199.759 E32.30653
G1 X58.831 Y197.802 E32.39134
G1 X57.143 Y195.893 E32.4761
G1 X55.414 Y194.045 E32.56027
G1 X53.621 Y192.236 E32.64499
G1 X51.791 Y190.49 E32.72911
G1 X49.882 Y188.769 E32.8146
G1 X47.982 Y187.152 E32.89758
G1 X45.97 Y185.535 E32.98343
G1 X43.956 Y184.009 E33.06748
G1 X41.905 Y182.542 E33.15135
G1 X39.777 Y181.111 E33.23664
G1 X37.638 Y179.758 E33.32082
G1 X35.446 Y178.458 E33.40558
G1 X33.237 Y177.23 E33.48964
G1 X30.998 Y176.067 E33.57356
G1 X28.705 Y174.957 E33.65829
G1 X26.374 Y173.909 E33.7433
G1 X24.031 Y172.935 E33.82769
G1 X21.629 Y172.015 E33.91324
G1 X19.292 Y171.194 E33.99563
G1 X16.838 Y170.411 E34.0813
G1 X14.38 Y169.701 E34.1664
G1 X13.333 Y169.429 E34.20238
G1 X12.627 Y169.234 E34.22674
G1 X11.768 Y168.955 E34.25678
G1 X10.937 Y168.601 E34.28682
G1 X10.141 Y168.176 E34.31683
G1 X9.385 Y167.681 E34.34689
G1 X8.676 Y167.122 E34.37692
G1 X8.02 Y166.502 E34.40694
G1 X7.42 Y165.826 E34.437
G1 X6.883 Y165.1 E34.46703
G1 X6.412 Y164.33 E34.49706
G1 X6.011 Y163.52 E34.52712
G1 X5.684 Y162.679 E34.55713
G1 X5.432 Y161.812 E34.58716
G1 X5.257 Y160.925 E34.61723
G1 X5.148 Y159.719 E34.6575
G1 X5.133 Y159.08 E34.67876
G1 X5.134 Y122.111 E35.90836
G1 X5.143 Y121.458 E35.93008
G1 X5.195 Y120.557 E35.9601
G1 X5.273 Y119.97 E35.97979
G1 X5.462 Y118.815 E36.01872
G1 X6.865 Y111.086 E36.27999
G1 X6.979 Y110.511 E36.29948
G1 X7.193 Y109.634 E36.32951
G1 X7.366 Y109.098 E36.34824
G1 X7.741 Y108.058 E36.38501
G1 X8.197 Y106.908 E36.42616
G1 X10.597 Y101.113 E36.63478
G1 X10.876 Y100.465 E36.65824
G1 X11.336 Y99.469 E36.69473
G1 X14.1 Y93.732 E36.90654
G1 X14.528 Y92.885 E36.9381
G1 X15.004 Y92 E36.97152
G1 X17.928 Y86.755 E37.17125
G1 X18.427 Y85.897 E37.20426
G1 X18.928 Y85.087 E37.23594
G1 X22.128 Y80.089 E37.43333
G1 X22.679 Y79.261 E37.46641
G1 X23.355 Y78.306 E37.50532
G1 X26.986 Y73.361 E37.70937
G1 X27.268 Y72.995 E37.72474
G1 X28.083 Y71.987 E37.76785
G1 X31.643 Y67.729 E37.95245
G1 X32.239 Y67.044 E37.98265
G1 X33.143 Y66.061 E38.02707
G1 X37.229 Y61.782 E38.22385
G1 X37.566 Y61.445 E38.2397
G1 X38.564 Y60.495 E38.28553
G1 X42.534 Y56.839 E38.46503
G1 X43.262 Y56.195 E38.49736
G1 X44.277 Y55.348 E38.54133
G1 X50.463 Y50.365 E38.80553
G1 X52.386 Y48.728 E38.88952
G1 X54.261 Y47.037 E38.9735
G1 X56.112 Y45.271 E39.05859
G1 X57.891 Y43.475 E39.14267
G1 X59.664 Y41.581 E39.22896
G1 X61.31 Y39.718 E39.31164
G1 X62.94 Y37.767 E39.3962
G1 X64.523 Y35.758 E39.48127
G1 X66.042 Y33.714 E39.56597
G1 X67.482 Y31.658 E39.64946
G1 X68.899 Y29.506 E39.73516
G1 X70.225 Y27.366 E39.81889
G1 X71.507 Y25.155 E39.9039
G1 X72.721 Y22.921 E39.98846
G1 X73.86 Y20.676 E40.07219
G1 X74.941 Y18.386 E40.15642
G1 X75.97 Y16.035 E40.24177
G1 X76.919 Y13.694 E40.32579
G1 X77.809 Y11.303 E40.41065
G1 X78.81 Y8.364 E40.51391
G1 X79.139 Y7.523 E40.54395
G1 X79.541 Y6.714 E40.574
G1 X80.013 Y5.944 E40.60403
G1 X80.551 Y5.218 E40.63409
G1 X81.151 Y4.544 E40.6641
G1 X81.808 Y3.925 E40.69412
G1 X82.518 Y3.366 E40.72418
G1 X83.274 Y2.873 E40.7542
G1 X84.071 Y2.448 E40.78424
G1 X84.903 Y2.095 E40.8143
G1 X85.762 Y1.818 E40.84432
G1 X86.643 Y1.617 E40.87437
G1 X87.538 Y1.495 E40.90442
G1 X88.148 Y1.458 E40.92474
G1 X88.787 Y1.443 E40.946
G1 X125.614 Y1.443 E42.17087
G1 X126.405 Y1.453 E42.19718
G1 X127.307 Y1.505 E42.22724
G1 X127.895 Y1.583 E42.24696
G1 X129.089 Y1.778 E42.2872
G1 X136.556 Y3.131 E42.5396
G1 X137.333 Y3.283 E42.56593
G1 X138.21 Y3.496 E42.59595
G1 X138.781 Y3.68 E42.6159
G1 X139.827 Y4.057 E42.65288
G1 X140.947 Y4.501 E42.69296
G1 X146.625 Y6.851 E42.89734
G1 X147.645 Y7.294 E42.93433
G1 X148.324 Y7.61 E42.95924
G1 X154.138 Y10.412 E43.1739
G1 X154.987 Y10.841 E43.20554
G1 X155.716 Y11.232 E43.23305
G1 X161.243 Y14.313 E43.44351
G1 X161.955 Y14.729 E43.47094
G1 X162.809 Y15.257 E43.50433
G1 X167.776 Y18.436 E43.70048
